packages/core/src/Assets/SvgComponents/settings/left.svg

<?xml version="1.0" encoding="UTF-8"?>
<svg width="160px" height="120px" viewBox="0 0 160 120" version="1.1" xmlns="http://www.w3.org/2000/svg" xmlns:xlink="http://www.w3.org/1999/xlink">
    <!-- Generator: Sketch 55.2 (78181) - https://sketchapp.com -->
    <title>Group</title>
    <desc>Created with Sketch.</desc>
    <defs>
        <linearGradient x1="50%" y1="100%" x2="50%" y2="0%" id="linearGradient-1">
            <stop stop-color="#FFFFFF" stop-opacity="0" offset="0%"></stop>
            <stop stop-color="#85ACB0" stop-opacity="0.16" offset="100%"></stop>
        </linearGradient>
    </defs>
    <g id="Symbols" stroke="none" stroke-width="1" fill="none" fill-rule="evenodd">
        <g id="images/img-charts-charts-positions-left">
            <g id="Group">
                <rect id="bg-all" fill="#F2F3F4" fill-rule="nonzero" x="9.89910332e-05" y="0" width="160" height="120"></rect>
                <polygon id="chart-shade" fill="url(#linearGradient-1)" points="9.89910335e-05 28.0591159 1.3484136 31.8238949 5.39335742 39.3534529 8.08998663 43.1182318 12.1349305 39.3534529 14.8315597 39.3534529 17.5281889 35.5886739 18.8765035 39.3534529 20.2248181 35.5886739 21.5731327 39.3534529 24.2697619 39.3534529 25.6180765 54.4125688 28.3147057 50.6477898 32.3596496 46.8830108 33.7079642 50.6477898 39.1012226 50.6477898 42.1461664 76.4125688 44.494481 50.6477898 45.8427956 54.4125688 47.1911102 50.6477898 53.9326833 43.1182318 55.2809979 31.8238949 59.3259417 28.0591159 67.4158293 31.8238949 70.1124585 35.5886739 72.8090878 35.5886739 74.1574024 31.8238949 75.505717 35.5886739 76.8540316 31.8238949 78.2023462 28.0591159 82.24729 20.529558 84.9439192 16.764779 87.6405484 16.764779 88.988863 13 91.6854922 16.764779 94.3821215 16.764779 97.0787507 20.529558 98.4270653 39.3534529 99.7753799 35.5886739 106.516953 31.8238949 109.213582 31.8238949 110.561897 43.1182318 111.910211 31.8238949 113.258526 35.5886739 127.30347 35.5886739 130.000099 35.5886739 130.000099 120 9.89910335e-05 120"></polygon>
                <path d="M8.42880646,43.1858789 C8.20853982,43.3888468 7.86045885,43.353934 7.68489013,43.1112634 L4.95388598,39.3293726 L0.908942163,31.8748272 L0.85860828,31.7368164 L0.0102936729,27.6004527 C-0.0451848362,27.3299407 0.129134257,27.0656732 0.399646264,27.0101947 C0.670158272,26.9547162 0.9344258,27.1290353 0.989904309,27.3995473 L1.8233257,31.4632919 L5.79845392,38.7978275 L8.16512666,42.0690354 L11.7961106,38.723212 C11.8884354,38.638138 12.0093858,38.5909091 12.1349305,38.5909091 L14.5761657,38.5909091 L17.1230924,35.0705548 C17.3584224,34.7452824 17.861801,34.8160185 17.9983709,35.1935514 L18.8765035,37.6210559 L19.7546361,35.1935514 C19.913762,34.7536647 20.5358742,34.7536647 20.6950001,35.1935514 L21.9239703,38.5909091 L24.2697619,38.5909091 C24.5284535,38.5909091 24.7444298,38.7882348 24.7677297,39.045875 L25.9961512,52.6292382 L27.9758859,49.9050302 L32.0208297,46.1777575 C32.2836298,45.9355965 32.7082685,46.0393215 32.8298315,46.3753695 L34.0588017,49.7727273 L39.1012226,49.7727273 C39.3546325,49.7727273 39.5679726,49.9623066 39.597757,50.2139601 L42.0819291,71.2031724 L43.996551,50.2272776 C44.0451427,49.6949245 44.7828196,49.5999555 44.964663,50.1026423 L45.8427956,52.5301468 L46.7209283,50.1026423 L46.8202677,49.9373531 L53.4552951,42.6006213 L54.7845936,31.5765067 C54.7988332,31.4584158 54.8547056,31.3492693 54.942178,31.2686666 L58.9871219,27.5413939 C59.1355997,27.4045767 59.3517935,27.370485 59.5351689,27.454972 L67.6250566,31.1822448 C67.7030992,31.2182015 67.7705583,31.2736641 67.8209258,31.343282 L70.3678525,34.8636364 L72.4582502,34.8636364 L73.6872204,31.4662786 C73.8463463,31.026392 74.4684584,31.026392 74.6275843,31.4662786 L75.505717,33.8937832 L76.3838496,31.4662786 L77.7628747,27.6706274 L81.8421935,20.1614639 L84.5388227,16.4341911 C84.6328466,16.3042315 84.7835135,16.2272727 84.9439192,16.2272727 L87.2897109,16.2272727 L88.5186811,12.829915 C88.6552509,12.4523822 89.1586295,12.381646 89.3939595,12.7069184 L91.9408862,16.2272727 L94.3821215,16.2272727 C94.5425272,16.2272727 94.693194,16.3042315 94.787218,16.4341911 L97.4838472,20.1614639 C97.5383275,20.2367664 97.5707404,20.3257638 97.5774472,20.4184655 L98.7562028,36.71119 L99.3051979,35.1935514 C99.3463858,35.0796919 99.4274906,34.9846463 99.533454,34.9260614 L106.275027,31.1987887 C106.349087,31.1578426 106.432328,31.1363636 106.516953,31.1363636 L109.213582,31.1363636 C109.466573,31.1363636 109.6797,31.3253348 109.709986,31.5765067 L110.561897,38.6415545 L111.413807,31.5765067 C111.476858,31.0536171 112.201234,30.9710103 112.380393,31.4662786 L113.609364,34.8636364 L130.000099,34.8636364 C130.276241,34.8636364 130.500099,35.087494 130.500099,35.3636364 C130.500099,35.6397787 130.276241,35.8636364 130.000099,35.8636364 L113.258526,35.8636364 C113.047966,35.8636364 112.85997,35.7317243 112.788344,35.5337214 L112.155,33.7829104 L111.058301,42.8780387 C110.987537,43.4648962 110.136256,43.4648962 110.065493,42.8780387 L108.770251,32.1363636 L106.64597,32.1363636 L100.181673,35.7103364 L98.8972473,39.2609941 C98.7136459,39.7685407 97.967316,39.6653162 97.9283687,39.1269891 L96.5903138,20.6324343 L94.1267275,17.2272727 L91.6854922,17.2272727 C91.5250865,17.2272727 91.3744197,17.1503139 91.2803957,17.0203543 L89.1376234,14.0586209 L88.1107304,16.8973577 C88.0391042,17.0953607 87.8511083,17.2272727 87.6405484,17.2272727 L85.1990236,17.2272727 L82.6867614,20.693009 L78.6725282,28.0791759 L75.9758989,35.5337214 C75.8167731,35.973608 75.1946609,35.973608 75.035535,35.5337214 L74.1574024,33.1062168 L73.2792697,35.5337214 C73.2076436,35.7317243 73.0196476,35.8636364 72.8090878,35.8636364 L70.1124585,35.8636364 C69.9520528,35.8636364 69.801386,35.7866776 69.707362,35.656718 L67.0875605,32.0356362 L59.4195542,28.5027379 L55.7553405,31.8791812 L54.4290875,42.8780387 C54.4167148,42.9806476 54.3728491,43.0769012 54.3035258,43.153556 L47.6278649,50.5352186 L46.3129776,54.170085 C46.1538517,54.6099717 45.5317395,54.6099717 45.3726136,54.170085 L44.7882658,52.5547174 L42.6440964,76.0454497 C42.5895157,76.6434167 41.7202058,76.6550582 41.649632,76.0587672 L38.6569102,50.7727273 L33.7079642,50.7727273 C33.4974043,50.7727273 33.3094083,50.6408152 33.2377822,50.4428123 L32.1448203,47.421435 L28.7198022,50.5658089 L26.023173,54.2930816 C25.7522156,54.6675981 25.1617433,54.5054112 25.1201087,54.0450341 L23.8129393,39.5909091 L21.5731327,39.5909091 C21.3625728,39.5909091 21.1745769,39.458997 21.1029507,39.2609941 L20.2248181,36.8334896 L19.3466855,39.2609941 C19.1875596,39.7008808 18.5654474,39.7008808 18.4063215,39.2609941 L17.3794285,36.4222573 L15.2366562,39.3839907 C15.1426322,39.5139503 14.9919654,39.5909091 14.8315597,39.5909091 L12.3301713,39.5909091 L8.42880646,43.1858789 Z" id="chart-border" fill="#85ACB0" fill-rule="nonzero"></path>
                <path d="M144.609054,34.75 L149.415024,29 L160.000099,29 L160.000099,41 L149.415024,41 L144.609054,35.25 L143.500099,35.25 L143.500099,34.75 L144.609054,34.75 Z M132.896059,34.75 L133.500099,34.75 L133.500099,35.25 L132.999281,35.25 C132.999825,35.2665999 133.000099,35.2832679 133.000099,35.3 C133.000099,36.1284271 132.328526,36.8 131.500099,36.8 C130.671672,36.8 130.000099,36.1284271 130.000099,35.3 C130.000099,34.4715729 130.671672,33.8 131.500099,33.8 C132.134368,33.8 132.676691,34.1936695 132.896059,34.75 Z M135.500099,35.25 L135.500099,34.75 L137.500099,34.75 L137.500099,35.25 L135.500099,35.25 Z M139.500099,35.25 L139.500099,34.75 L141.500099,34.75 L141.500099,35.25 L139.500099,35.25 Z" id="current-spot" fill="#FF444F" fill-rule="nonzero"></path>
                <rect id="bg" fill="#F2F3F4" x="9.89910332e-05" y="3" width="24" height="114"></rect>
                <polygon id="path" fill-opacity="0.32" fill="#999CAC" fill-rule="nonzero" points="23.000099 3 24.000099 3 24.000099 117 23.000099 117"></polygon>
                <path d="M14.2908721,13.9372198 L14.9268757,14.5732233 C15.0245067,14.6708544 15.0245067,14.8291456 14.9268757,14.9267767 C14.8292446,15.0244078 14.6709534,15.0244078 14.5733223,14.9267767 L9.0733223,9.4267767 C8.97569122,9.32914562 8.97569122,9.17085438 9.0733223,9.0732233 C9.17095337,8.97559223 9.32924461,8.97559223 9.42687569,9.0732233 L10.0628832,9.70923081 C10.5368402,9.30791405 11.1233607,9.06214378 11.750099,9.01030341 L11.750099,8.25 C11.750099,8.11192881 11.8620278,8 12.000099,8 C12.1381702,8 12.250099,8.11192881 12.250099,8.25 L12.250099,9.01026844 C13.7075483,9.13050555 14.8695934,10.2925507 14.9898305,11.75 L15.750099,11.75 C15.8881702,11.75 16.000099,11.8619288 16.000099,12 C16.000099,12.1380712 15.8881702,12.25 15.750099,12.25 L14.9897946,12.25 C14.9379366,12.8769033 14.6920484,13.4634528 14.2908721,13.9372198 Z M13.9358614,13.582209 C14.2977041,13.1403273 14.500099,12.5863047 14.500099,12 C14.500099,10.6192881 13.3808108,9.5 12.000099,9.5 C11.4139382,9.5 10.8599634,9.70226241 10.4178947,10.0642423 L10.7736808,10.4200285 C11.1206247,10.1502669 11.5488932,10 12.000099,10 C13.1046685,10 14.000099,10.8954305 14.000099,12 C14.000099,12.4509434 13.8500407,12.8791689 13.5800641,13.2264117 L13.9358614,13.582209 Z M13.2228203,12.869168 C13.4016353,12.6182746 13.500099,12.3170182 13.500099,12 C13.500099,11.1715729 12.8285261,10.5 12.000099,10.5 C11.6829382,10.5 11.3816259,10.5985913 11.1309236,10.7772712 L13.2228203,12.869168 Z M11.750099,14.9897316 C10.2926497,14.8694944 9.13060455,13.7074493 9.01036744,12.25 L8.25009899,12.25 C8.1120278,12.25 8.00009899,12.1380712 8.00009899,12 C8.00009899,11.8619288 8.1120278,11.75 8.25009899,11.75 L9.0103814,11.75 C9.03417331,11.4619138 9.09902098,11.1812667 9.20250201,10.9146948 C9.25246745,10.7859815 9.39731517,10.7221438 9.52602844,10.7721092 C9.65474172,10.8220747 9.71857946,10.9669224 9.66861402,11.0956357 C9.55771003,11.3813294 9.50009899,11.686484 9.50009899,12 C9.50009899,13.3807118 10.6193871,14.5 12.000099,14.5 C12.3260745,14.5 12.6429735,14.4377143 12.9382534,14.3180823 C13.0662208,14.2662365 13.2119882,14.3279453 13.263834,14.4559128 C13.3156797,14.5838802 13.2539709,14.7296477 13.1260035,14.7814934 C12.8474618,14.894344 12.5529153,14.9647088 12.250099,14.9897174 L12.250099,15.75 C12.250099,15.8880712 12.1381702,16 12.000099,16 C11.8620278,16 11.750099,15.8880712 11.750099,15.75 L11.750099,14.9897316 Z M10.0619117,11.5049133 C10.0959986,11.3711159 10.2320957,11.2902846 10.3658931,11.3243715 C10.4996904,11.3584584 10.5805217,11.4945555 10.5464348,11.6283529 C10.5157748,11.7486993 10.500099,11.8732094 10.500099,12 C10.500099,12.8284271 11.1716719,13.5 12.000099,13.5 C12.1049442,13.5 12.2082486,13.4892816 12.3089695,13.4682175 C12.4441169,13.4399536 12.5765878,13.5265999 12.6048517,13.6617472 C12.6331156,13.7968945 12.5464694,13.9293655 12.411322,13.9576293 C12.2769882,13.985723 12.1393862,14 12.000099,14 C10.8955295,14 10.000099,13.1045695 10.000099,12 C10.000099,11.8314927 10.0209951,11.6655185 10.0619117,11.5049133 Z M10.0342434,27.9743917 C10.012057,27.9035404 10.000099,27.8281667 10.000099,27.75 C10.000099,27.3357864 10.3358854,27 10.750099,27 C11.1643126,27 11.500099,27.3357864 11.500099,27.75 C11.500099,27.8302615 11.4874915,27.9075783 11.4641489,27.9800781 L12.3219397,28.6341437 C12.4433438,28.5495821 12.5909311,28.5 12.750099,28.5 C12.8711664,28.5 12.9855338,28.5286859 13.0867751,28.5796316 L14.5748108,27.0767155 C14.5269419,26.9779578 14.500099,26.8671136 14.500099,26.75 C14.500099,26.3357864 14.8358854,26 15.250099,26 C15.6643126,26 16.000099,26.3357864 16.000099,26.75 C16.000099,27.1642136 15.6643126,27.5 15.250099,27.5 C15.1356389,27.5 15.0271674,27.4743597 14.9301149,27.4285095 L13.4333469,28.9402452 C13.4762216,29.0346666 13.500099,29.1395449 13.500099,29.25 C13.500099,29.6642136 13.1643126,30 12.750099,30 C12.3358854,30 12.000099,29.6642136 12.000099,29.25 C12.000099,29.1771721 12.0104793,29.1067686 12.0298411,29.0401884 L11.160879,28.3776047 C11.0428842,28.4549918 10.9017477,28.5 10.750099,28.5 C10.5963139,28.5 10.4533393,28.4537147 10.3343459,28.3743148 L9.46595459,29.0256083 C9.48814101,29.0964596 9.50009899,29.1718333 9.50009899,29.25 C9.50009899,29.6642136 9.16431255,30 8.75009899,30 C8.33588543,30 8.00009899,29.6642136 8.00009899,29.25 C8.00009899,28.8357864 8.33588543,28.5 8.75009899,28.5 C8.90388411,28.5 9.04685871,28.5462853 9.16585208,28.6256852 L10.0342434,27.9743917 Z M15.250099,27 C15.3881702,27 15.500099,26.8880712 15.500099,26.75 C15.500099,26.6119288 15.3881702,26.5 15.250099,26.5 C15.1120278,26.5 15.000099,26.6119288 15.000099,26.75 C15.000099,26.8880712 15.1120278,27 15.250099,27 Z M12.750099,29.5 C12.8881702,29.5 13.000099,29.3880712 13.000099,29.25 C13.000099,29.1119288 12.8881702,29 12.750099,29 C12.6120278,29 12.500099,29.1119288 12.500099,29.25 C12.500099,29.3880712 12.6120278,29.5 12.750099,29.5 Z M10.750099,28 C10.8881702,28 11.000099,27.8880712 11.000099,27.75 C11.000099,27.6119288 10.8881702,27.5 10.750099,27.5 C10.6120278,27.5 10.500099,27.6119288 10.500099,27.75 C10.500099,27.8880712 10.6120278,28 10.750099,28 Z M8.75009899,29.5 C8.88817018,29.5 9.00009899,29.3880712 9.00009899,29.25 C9.00009899,29.1119288 8.88817018,29 8.75009899,29 C8.6120278,29 8.50009899,29.1119288 8.50009899,29.25 C8.50009899,29.3880712 8.6120278,29.5 8.75009899,29.5 Z M13.3969494,61 L10.6033646,61 L9.47569055,63.3578639 C9.41611898,63.4824226 9.26685187,63.5351051 9.14229312,63.4755336 C9.01773438,63.415962 8.96505187,63.2666949 9.02462344,63.1421361 L10.0491233,61 L9.250157,61 C9.11208581,61 9.000157,60.8880712 9.000157,60.75 C9.000157,60.6119288 9.11208581,60.5 9.250157,60.5 L10.2882538,60.5 L11.3568583,58.2656451 C11.1387595,58.0822065 11.000157,57.8072894 11.000157,57.5 C11.000157,56.9477153 11.4478722,56.5 12.000157,56.5 C12.5524417,56.5 13.000157,56.9477153 13.000157,57.5 C13.000157,57.8072894 12.8615545,58.0822065 12.6434557,58.2656451 L13.7120602,60.5 L14.750157,60.5 C14.8882282,60.5 15.000157,60.6119288 15.000157,60.75 C15.000157,60.8880712 14.8882282,61 14.750157,61 L13.9511907,61 L14.9756906,63.1421361 C15.0352621,63.2666949 14.9825796,63.415962 14.8580209,63.4755336 C14.7334621,63.5351051 14.584195,63.4824226 14.5246234,63.3578639 L13.3969494,61 Z M13.157819,60.5 L12.1924622,58.4815268 C12.1302303,58.493649 12.0659353,58.5 12.000157,58.5 C11.9343787,58.5 11.8700837,58.493649 11.8078518,58.4815268 L10.842495,60.5 L13.157819,60.5 Z M12.8536524,45 L15.750099,45 C15.8881702,45 16.000099,45.1119288 16.000099,45.25 C16.000099,45.3880712 15.8881702,45.5 15.750099,45.5 L12.8536524,45.5 L13.9268757,46.5732233 C14.0245068,46.6708544 14.0245068,46.8291456 13.9268757,46.9267767 C13.8292446,47.0244078 13.6709534,47.0244078 13.5733223,46.9267767 L12.0733223,45.4267767 C11.9756912,45.3291456 11.9756912,45.1708544 12.0733223,45.0732233 L13.5733223,43.5732233 C13.6709534,43.4755922 13.8292446,43.4755922 13.9268757,43.5732233 C14.0245068,43.6708544 14.0245068,43.8291456 13.9268757,43.9267767 L12.8536524,45 Z M11.1465456,43 L8.25009899,43 C8.1120278,43 8.00009899,42.8880712 8.00009899,42.75 C8.00009899,42.6119288 8.1120278,42.5 8.25009899,42.5 L11.1465456,42.5 L10.0733223,41.4267767 C9.97569122,41.3291456 9.97569122,41.1708544 10.0733223,41.0732233 C10.1709534,40.9755922 10.3292446,40.9755922 10.4268757,41.0732233 L11.9268757,42.5732233 C12.0245068,42.6708544 12.0245068,42.8291456 11.9268757,42.9267767 L10.4268757,44.4267767 C10.3292446,44.5244078 10.1709534,44.5244078 10.0733223,44.4267767 C9.97569122,44.3291456 9.97569122,44.1708544 10.0733223,44.0732233 L11.1465456,43 Z M12.250099,107.75 L14.500099,107.75 L14.500099,108.25 L12.250099,108.25 L12.250099,110.5 L11.750099,110.5 L11.750099,108.25 L9.50009899,108.25 L9.50009899,107.75 L11.750099,107.75 L11.750099,105.5 L12.250099,105.5 L12.250099,107.75 Z M9.50009899,91.75 L14.500099,91.75 L14.500099,92.25 L9.50009899,92.25 L9.50009899,91.75 Z M14.0429922,74 L13.000099,72.9571068 L13.000099,73.75 C13.000099,73.8880712 13.1120278,74 13.250099,74 L14.0429922,74 Z M12.500099,72.5 L9.50009899,72.5 L9.50009899,79.5 L14.500099,79.5 L14.500099,74.5 L13.250099,74.5 C12.8358854,74.5 12.500099,74.1642136 12.500099,73.75 L12.500099,72.5 Z M9.50009899,72 L12.750099,72 L15.000099,74.25 L15.000099,79.5 C15.000099,79.7761424 14.7762414,80 14.500099,80 L9.50009899,80 C9.22395662,80 9.00009899,79.7761424 9.00009899,79.5 L9.00009899,72.5 C9.00009899,72.2238576 9.22395662,72 9.50009899,72 Z M11.750099,77.1464466 L11.750099,74.75 C11.750099,74.6119288 11.8620278,74.5 12.000099,74.5 C12.1381702,74.5 12.250099,74.6119288 12.250099,74.75 L12.250099,77.1464466 L12.8233223,76.5732233 C12.9209534,76.4755922 13.0792446,76.4755922 13.1768757,76.5732233 C13.2745068,76.6708544 13.2745068,76.8291456 13.1768757,76.9267767 L12.1768757,77.9267767 C12.0792446,78.0244078 11.9209534,78.0244078 11.8233223,77.9267767 L10.8233223,76.9267767 C10.7256912,76.8291456 10.7256912,76.6708544 10.8233223,76.5732233 C10.9209534,76.4755922 11.0792446,76.4755922 11.1768757,76.5732233 L11.750099,77.1464466 Z" id="icons" fill="#333333"></path>
            </g>
        </g>
    </g>
</svg>

<svg width="160" height="120" xmlns="http://www.w3.org/2000/svg"><defs><linearGradient x1="50%" y1="100%" x2="50%" y2="0%" id="a"><stop stop-color="#FFF" stop-opacity="0" offset="0%"/><stop stop-color="#85ACB0" stop-opacity=".16" offset="100%"/></linearGradient></defs><g fill="none" fill-rule="evenodd"><path fill="#F2F3F4" fill-rule="nonzero" d="M0 0h160v120H0z"/><path fill="url(#a)" d="m0 28.06 1.348 3.764 4.045 7.53 2.697 3.764 4.045-3.765h2.697l2.696-3.764 1.349 3.764 1.348-3.764 1.348 3.764h2.697l1.348 15.06 2.697-3.765 4.045-3.765 1.348 3.765h5.393l3.045 25.765 2.348-25.765 1.349 3.765 1.348-3.765 6.742-7.53 1.348-11.294 4.045-3.765 8.09 3.765 2.696 3.765h2.697l1.348-3.765 1.349 3.765 1.348-3.765 1.348-3.765 4.045-7.53 2.697-3.764h2.697L88.989 13l2.696 3.765h2.697l2.697 3.765 1.348 18.823 1.348-3.764 6.742-3.765h2.697l1.348 11.294 1.348-11.294 1.349 3.765H130V120H0z"/><path d="M8.429 43.186a.5.5 0 0 1-.744-.075L4.954 39.33.909 31.875l-.05-.138L.01 27.6a.5.5 0 1 1 .98-.2l.833 4.063 3.975 7.335 2.367 3.271 3.631-3.346a.5.5 0 0 1 .339-.132h2.441l2.547-3.52a.5.5 0 0 1 .875.123l.879 2.427.878-2.427a.5.5 0 0 1 .94 0l1.229 3.397h2.346a.5.5 0 0 1 .498.455l1.228 13.583 1.98-2.724 4.045-3.727a.5.5 0 0 1 .809.197l1.229 3.398H39.1a.5.5 0 0 1 .497.441l2.484 20.99 1.915-20.977c.048-.532.786-.627.968-.124l.878 2.427.878-2.427.1-.166 6.634-7.336 1.33-11.024a.5.5 0 0 1 .157-.308l4.045-3.728a.5.5 0 0 1 .548-.086l8.09 3.727a.5.5 0 0 1 .196.161l2.547 3.52h2.09l1.23-3.397a.5.5 0 0 1 .94 0l.878 2.428.878-2.428 1.379-3.795 4.08-7.51 2.696-3.727a.5.5 0 0 1 .405-.207h2.346l1.229-3.397a.5.5 0 0 1 .875-.123l2.547 3.52h2.441a.5.5 0 0 1 .405.207l2.697 3.727a.5.5 0 0 1 .093.257l1.18 16.293.548-1.517a.5.5 0 0 1 .228-.268l6.742-3.727a.5.5 0 0 1 .242-.063h2.697a.5.5 0 0 1 .496.44l.852 7.066.852-7.065c.063-.523.787-.606.966-.11l1.23 3.397H130a.5.5 0 0 1 0 1h-16.74a.5.5 0 0 1-.47-.33l-.634-1.751-1.097 9.095c-.07.587-.922.587-.993 0l-1.295-10.742h-2.124l-6.464 3.574-1.285 3.551c-.183.508-.93.404-.969-.134L96.59 20.632l-2.463-3.405h-2.442a.5.5 0 0 1-.405-.207l-2.142-2.961-1.027 2.838a.5.5 0 0 1-.47.33h-2.442l-2.512 3.466-4.014 7.386-2.697 7.455a.5.5 0 0 1-.94 0l-.879-2.428-.878 2.428a.5.5 0 0 1-.47.33h-2.697a.5.5 0 0 1-.405-.207l-2.62-3.621-7.667-3.533-3.665 3.376-1.326 10.999a.5.5 0 0 1-.125.276l-6.676 7.381-1.315 3.635a.5.5 0 0 1-.94 0l-.585-1.615-2.144 23.49c-.054.598-.924.61-.994.014l-2.993-25.286h-4.949a.5.5 0 0 1-.47-.33l-1.093-3.022-3.425 3.145-2.697 3.727a.5.5 0 0 1-.903-.248l-1.307-14.454h-2.24a.5.5 0 0 1-.47-.33l-.878-2.428-.878 2.428a.5.5 0 0 1-.94 0l-1.028-2.839-2.142 2.962a.5.5 0 0 1-.405.207H12.33l-3.9 3.595Z" fill="#85ACB0" fill-rule="nonzero"/><path d="m144.61 34.75 4.805-5.75H160v12h-10.585l-4.806-5.75H143.5v-.5h1.11Zm-11.714 0h.604v.5h-.5v.05a1.5 1.5 0 1 1-.104-.55Zm2.604.5v-.5h2v.5h-2Zm4 0v-.5h2v.5h-2Z" fill="#FF444F" fill-rule="nonzero"/><path fill="#F2F3F4" d="M0 3h24v114H0z"/><path fill-opacity=".32" fill="#999CAC" fill-rule="nonzero" d="M23 3h1v114h-1z"/><path d="m14.29 13.937.637.636a.25.25 0 0 1-.354.354l-5.5-5.5a.25.25 0 1 1 .354-.354l.636.636a2.987 2.987 0 0 1 1.687-.699v-.76a.25.25 0 1 1 .5 0v.76a3 3 0 0 1 2.74 2.74h.76a.25.25 0 1 1 0 .5h-.76a2.987 2.987 0 0 1-.7 1.687Zm-.354-.355a2.5 2.5 0 0 0-3.518-3.518l.356.356a2 2 0 0 1 2.806 2.806l.356.356Zm-.713-.713a1.5 1.5 0 0 0-2.092-2.092l2.092 2.092Zm-1.473 2.12a3 3 0 0 1-2.74-2.739h-.76a.25.25 0 1 1 0-.5h.76c.024-.288.089-.569.193-.835a.25.25 0 1 1 .466.18 2.5 2.5 0 0 0 3.27 3.222.25.25 0 1 1 .187.464 2.984 2.984 0 0 1-.876.209v.76a.25.25 0 1 1-.5 0v-.76Zm-1.688-3.484a.25.25 0 1 1 .484.123 1.503 1.503 0 0 0 1.763 1.84.25.25 0 0 1 .102.49 2 2 0 0 1-2.35-2.453Zm-.028 16.47a.75.75 0 1 1 1.43.005l.858.654a.747.747 0 0 1 .765-.054l1.488-1.503a.75.75 0 1 1 .355.352l-1.497 1.511a.75.75 0 1 1-1.404.1l-.868-.662a.746.746 0 0 1-.827-.004l-.868.652a.75.75 0 1 1-.3-.4l.868-.652ZM15.25 27a.25.25 0 1 0 0-.5.25.25 0 0 0 0 .5Zm-2.5 2.5a.25.25 0 1 0 0-.5.25.25 0 0 0 0 .5Zm-2-1.5a.25.25 0 1 0 0-.5.25.25 0 0 0 0 .5Zm-2 1.5a.25.25 0 1 0 0-.5.25.25 0 0 0 0 .5ZM13.397 61h-2.794l-1.127 2.358a.25.25 0 0 1-.451-.216L10.049 61H9.25a.25.25 0 1 1 0-.5h1.038l1.069-2.234a1 1 0 1 1 1.287 0l1.068 2.234h1.038a.25.25 0 1 1 0 .5h-.799l1.025 2.142a.25.25 0 0 1-.451.216L13.397 61Zm-.24-.5-.965-2.018a1.005 1.005 0 0 1-.384 0l-.966 2.018h2.316ZM12.855 45h2.896a.25.25 0 1 1 0 .5h-2.896l1.073 1.073a.25.25 0 1 1-.354.354l-1.5-1.5a.25.25 0 0 1 0-.354l1.5-1.5a.25.25 0 1 1 .354.354L12.854 45Zm-1.707-2H8.25a.25.25 0 1 1 0-.5h2.897l-1.074-1.073a.25.25 0 1 1 .354-.354l1.5 1.5a.25.25 0 0 1 0 .354l-1.5 1.5a.25.25 0 1 1-.354-.354L11.147 43Zm1.103 64.75h2.25v.5h-2.25v2.25h-.5v-2.25H9.5v-.5h2.25v-2.25h.5v2.25Zm-2.75-16h5v.5h-5v-.5ZM14.043 74 13 72.957v.793c0 .138.112.25.25.25h.793ZM12.5 72.5h-3v7h5v-5h-1.25a.75.75 0 0 1-.75-.75V72.5Zm-3-.5h3.25L15 74.25v5.25a.5.5 0 0 1-.5.5h-5a.5.5 0 0 1-.5-.5v-7a.5.5 0 0 1 .5-.5Zm2.25 5.146V74.75a.25.25 0 1 1 .5 0v2.396l.573-.573a.25.25 0 1 1 .354.354l-1 1a.25.25 0 0 1-.354 0l-1-1a.25.25 0 1 1 .354-.354l.573.573Z" fill="#333"/></g></svg>
